svg/fluentui-system-icons/ic_fluent_clipboard_heart_24_filled.svg

<svg width="24" height="24" viewBox="0 0 24 24" fill="none" xmlns="http://www.w3.org/2000/svg">
<path d="M10.25 2H13.75C14.9079 2 15.8616 2.87472 15.9862 3.99944L17.75 4C18.9926 4 20 5.00736 20 6.25V11.2317C18.9701 11.1167 17.9078 11.3594 17.0144 11.9596C15.2779 10.793 12.9036 10.9772 11.3686 12.5123C9.62421 14.2566 9.62421 17.0848 11.3686 18.8292L14.5394 22H6.25C5.00736 22 4 20.9926 4 19.75V6.25C4 5.00736 5.00736 4 6.25 4L8.01379 3.99944C8.13841 2.87472 9.09205 2 10.25 2ZM13.75 3.5H10.25C9.83579 3.5 9.5 3.83579 9.5 4.25C9.5 4.66421 9.83579 5 10.25 5H13.75C14.1642 5 14.5 4.66421 14.5 4.25C14.5 3.83579 14.1642 3.5 13.75 3.5ZM17.0144 22.75C16.8224 22.75 16.6304 22.6768 16.484 22.5303L12.0757 18.122C10.7218 16.7682 10.7218 14.5732 12.0757 13.2194C13.4295 11.8655 15.6245 11.8655 16.9784 13.2194L17.0144 13.2554L17.0504 13.2194C18.4042 11.8655 20.5992 11.8655 21.953 13.2194C23.3069 14.5732 23.3069 16.7682 21.953 18.122L17.5448 22.5303C17.3983 22.6768 17.2064 22.75 17.0144 22.75Z" fill="#212121"/>
</svg>

<svg xmlns="http://www.w3.org/2000/svg" width="24" height="24"><path d="M10.25 2h3.5a2.25 2.25 0 0 1 2.236 2h1.764A2.25 2.25 0 0 1 20 6.25v4.982a4.465 4.465 0 0 0-2.986.728 4.468 4.468 0 0 0-5.645 6.87l3.17 3.17H6.25A2.25 2.25 0 0 1 4 19.75V6.25A2.25 2.25 0 0 1 6.25 4h1.764a2.25 2.25 0 0 1 2.236-2Zm3.5 1.5h-3.5a.75.75 0 0 0 0 1.5h3.5a.75.75 0 0 0 0-1.5Zm3.264 19.25a.747.747 0 0 1-.53-.22l-4.408-4.408a3.467 3.467 0 1 1 4.902-4.903l.036.036.036-.036a3.467 3.467 0 1 1 4.903 4.903l-4.408 4.408a.748.748 0 0 1-.53.22Z"/></svg>
